assets/Left luggage/Flat/left_luggage_flat.svg

<svg width="32" height="32" viewBox="0 0 32 32" fill="none" xmlns="http://www.w3.org/2000/svg">
<path d="M2 6C2 3.79086 3.79086 2 6 2H26C28.2091 2 30 3.79086 30 6V26C30 28.2091 28.2091 30 26 30H6C3.79086 30 2 28.2091 2 26V6Z" fill="#00A6ED"/>
<path d="M15.1463 8.94259C14.669 10.1479 13.4961 11 12.1248 11C10.3298 11 8.87476 9.54009 8.87476 7.7392C8.87476 5.93831 10.3298 4.47839 12.1248 4.47839C13.4283 4.47839 14.5525 5.24834 15.0704 6.35968H21.5352C21.5622 6.35968 21.589 6.36075 21.6155 6.36286C21.647 6.36055 21.6788 6.35938 21.7109 6.35938C22.4229 6.35938 23 6.93651 23 7.64845C23 8.34062 22.4545 8.90538 21.7699 8.93619C21.7326 8.94041 21.6947 8.94258 21.6563 8.94258L20.7065 8.94259C20.5012 8.94259 20.3043 8.86103 20.1591 8.71586L19.9988 8.55554C19.785 8.34178 19.4384 8.34178 19.2247 8.55554C19.0109 8.7693 18.6643 8.7693 18.4506 8.55554C18.2368 8.34178 17.8903 8.34178 17.6765 8.55554L17.5162 8.71586C17.371 8.86103 17.1741 8.94259 16.9688 8.94259H15.1463ZM10.4921 8.4892C10.9063 8.4892 11.2421 8.15341 11.2421 7.7392C11.2421 7.32498 10.9063 6.9892 10.4921 6.9892C10.0779 6.9892 9.74207 7.32498 9.74207 7.7392C9.74207 8.15341 10.0779 8.4892 10.4921 8.4892Z" fill="white"/>
<path d="M14 16H12.25C12.1119 16 12 16.1119 12 16.25V25.75C12 25.8881 12.1119 26 12.25 26H19.75C19.8881 26 20 25.8881 20 25.75V16.25C20 16.1119 19.8881 16 19.75 16H18C18 14.8954 17.1046 14 16 14C14.8954 14 14 14.8954 14 16ZM17 16H15C15 15.4477 15.4477 15 16 15C16.5523 15 17 15.4477 17 16Z" fill="white"/>
<path d="M8 17C8 16.4477 8.44772 16 9 16H10.75C10.8881 16 11 16.1119 11 16.25V25.75C11 25.8881 10.8881 26 10.75 26H9C8.44772 26 8 25.5523 8 25V17Z" fill="white"/>
<path d="M21.25 26C21.1119 26 21 25.8881 21 25.75V16.25C21 16.1119 21.1119 16 21.25 16H23C23.5523 16 24 16.4477 24 17V25C24 25.5523 23.5523 26 23 26H21.25Z" fill="white"/>
<path d="M6.5 12C5.67157 12 5 12.6716 5 13.5V26.5C5 27.3284 5.67157 28 6.5 28H25.5C26.3284 28 27 27.3284 27 26.5V13.5C27 12.6716 26.3284 12 25.5 12H6.5ZM6.5 13H25.5C25.7761 13 26 13.2239 26 13.5V26.5C26 26.7761 25.7761 27 25.5 27H6.5C6.22386 27 6 26.7761 6 26.5V13.5C6 13.2239 6.22386 13 6.5 13Z" fill="white"/>
</svg>

<svg xmlns="http://www.w3.org/2000/svg" width="32" height="32" fill="none"><path fill="#00A6ED" d="M2 6a4 4 0 0 1 4-4h20a4 4 0 0 1 4 4v20a4 4 0 0 1-4 4H6a4 4 0 0 1-4-4V6Z"/><path fill="#fff" d="M15.146 8.943A3.251 3.251 0 0 1 12.125 11a3.255 3.255 0 0 1-3.25-3.26c0-1.802 1.455-3.262 3.25-3.262A3.25 3.25 0 0 1 15.07 6.36h6.465c.027 0 .054 0 .08.003a1.289 1.289 0 1 1 .154 2.573 1.01 1.01 0 0 1-.113.007h-.95a.774.774 0 0 1-.547-.227l-.16-.16a.547.547 0 0 0-.774 0 .547.547 0 0 1-.774 0 .547.547 0 0 0-.774 0l-.16.16a.774.774 0 0 1-.548.227h-1.823Zm-4.654-.454a.75.75 0 1 0 0-1.5.75.75 0 0 0 0 1.5ZM14 16h-1.75a.25.25 0 0 0-.25.25v9.5c0 .138.112.25.25.25h7.5a.25.25 0 0 0 .25-.25v-9.5a.25.25 0 0 0-.25-.25H18a2 2 0 1 0-4 0Zm3 0h-2a1 1 0 1 1 2 0ZM8 17a1 1 0 0 1 1-1h1.75a.25.25 0 0 1 .25.25v9.5a.25.25 0 0 1-.25.25H9a1 1 0 0 1-1-1v-8ZM21.25 26a.25.25 0 0 1-.25-.25v-9.5a.25.25 0 0 1 .25-.25H23a1 1 0 0 1 1 1v8a1 1 0 0 1-1 1h-1.75Z"/><path fill="#fff" d="M6.5 12A1.5 1.5 0 0 0 5 13.5v13A1.5 1.5 0 0 0 6.5 28h19a1.5 1.5 0 0 0 1.5-1.5v-13a1.5 1.5 0 0 0-1.5-1.5h-19Zm0 1h19a.5.5 0 0 1 .5.5v13a.5.5 0 0 1-.5.5h-19a.5.5 0 0 1-.5-.5v-13a.5.5 0 0 1 .5-.5Z"/></svg>
